outputs/icons/alert/error_round.svg

<svg xmlns="http://www.w3.org/2000/svg" width="1200" height="1200" fill="none"><g clip-path="url(#a)"><path fill="#000" d="M600 100c-276 0-500 224-500 500s224 500 500 500 500-224 500-500-224-500-500-500m0 550c-27.5 0-50-22.5-50-50V400c0-27.5 22.5-50 50-50s50 22.5 50 50v200c0 27.5-22.5 50-50 50m50 200H550V750h100z"/></g><defs><clipPath id="a"><path fill="#fff" d="M0 0h1200v1200H0z"/></clipPath></defs></svg>

<svg width="1200" height="1200" viewBox="0 0 1200 1200" fill="none" xmlns="http://www.w3.org/2000/svg"><g clip-path="url(#clip0_223_2051)"><path d="M600 100C324 100 100 324 100 600C100 876 324 1100 600 1100C876 1100 1100 876 1100 600C1100 324 876 100 600 100ZM600 650C572.5 650 550 627.5 550 600V400C550 372.5 572.5 350 600 350C627.5 350 650 372.5 650 400V600C650 627.5 627.5 650 600 650ZM650 850H550V750H650V850Z" fill="black"/></g><defs><clipPath id="clip0_223_2051"><path width="24" fill="white" d="M0 0H1200V1200H0V0z"/></clipPath></defs></svg>
